X: 462
T: A Waltz For Mairead
R: waltz
M: 3/4
K: Gminor
D GA|:B3 G AB|A3 ^F GA|GD B,D A,B,|G,A, B,D GB|
c3 A Bc|B3 G AB|Ad A^F GE|DA, B,D GA|
B3 G AB|A3 ^F GA|GD B,D A,B,|G,A, B,D GF|
EC EG cA|D^F Ac dA|G3 B A^F|1 G3 D GA:|2 G^F =F=E _ED||
E3 C DE|D3 G, B,D|CB, A,D CB,|G,A, B,=B, CD|
E3 C DE|D3 G, B,D|CB, A,D CB,|1 G,A, B,=B, CD:|2 z2 z D GA||

